X:1
T:Braes of Balquidder
M:2/4
L:1/16
K:D
 D3 A| B4 A3 D F4| F3 A B4 A3 F|
M:3/4
 F2 E6 F3 A|
M:2/4
 B4 A3 D| F4 F3 A| B3 c d3 B|
M:3/4
 A2 F6 F3 A|
M:2/4
 B3- c d3 B-| A F3 f2e2| d- B3 A3 F|
M:3/4
 F2 E6 F3 A|
M:2/4
 B3- c d3 B| A3- F f3 e|d2-B2 A2F2|
M:3/4
 F2 E6 F3 A|
M:2/4
 B4 A3 D| F4 F3 A| B4 A3 F|
M:3/4
 F2 E6| F3 A|
M:2/4
 B4 A2D2| F4 F3 A| B3- ce-dc-B| A2 F6|
